X: 40281
T: Toby Dog's Tune
R: reel
M: 4/4
K: Amajor
E/E/ E/F/A|:"A" c> c2 B/A/F/|E/F/A/B/ B/c/B/A/|"D" F> F F/E/D/F/|E/F/A/B/ "A" B/c/B/A/|
"A" c> c c/c/B/c/|ec (3B/c/B/A|"E" B>B2 c/B/A/|1 "A" AE/E/ E/F/A:|2 "A" AA/A/ A/c/B/A/||
|:"D" d>d2 D/E/D/|F/D/A/D/ F/D/A/D/|"A" c>c2 E/F/E/|A/E/c/E/ A/E/c/E/|"E" B>B2 E/F/E/|
"D" A>A2 E/F/E/|1 "A" c> c2 B/A/F/|E/F/A/B/ B/c/B/A/:|2 "E" e>e2 c/B/c/|"A" A (3A/A/A/ A2||

